X: 1
T: Polska efter August Nyholm, Delsbo
R: slang-polska
B: SvL H\"alsingland 255
N: Arr Hans-Ers online PDF file
M: 3/4
L: 1/16
K: G
|:"G"d3B G2AB "F"c2AB | "G"G2B2 d2Bd g4 \
| "G"d3B G2AB "F"c2AB |1,3 "G"G2A2 "D7"F2AF D4 :|2,4 "G"G2"D7"AF "G"G8 :|
|:"Em"g3f e2^de "D"f2a2 | "Em"g2fg e2^de "(B)"B4 \
| "Em"g2f2 e2f2 g2a2 | "(D)"a2g2 g2f2 "D"f4 |
| "Em"g3f e2^de "D"f2a2 | "Em"g2fg e2^de "(B)"B4 \
| "G"B2c2 "F"A2cB "G"G2AB | "D7"c2AF "G"G8 :|

%%sep 1 1 500

